X:0719
T:Vulcan's March.
C:Composed by Countess of Balca...s.
M:2/4
L:1/8
Q:1/4=96
I: :: :|
Z:Jack Campin * www.campin.me.uk * 2009
K:C
     z//(G//A//B//)| c2    z(c//d//e//f//)|g3      f             |e2 d2 |c3   \
"_P" d             | ec````c'g            |fed`````c             |B2 B>B|B2z
"_F" z//(G//A//B//)| c2    z(c//d//e//f//)|g2z     z//(g//a//b//)|c'bag |fedc|\
"_P"                 ge````c`c            |fdB`````B             |c2`c>c|c3 :|
"_F"(G//`A//B//c//)| d3      g            |fef`````d             |cB`AG |agfe|\
                     fe````d`c            |gc'B````a             |ag`fe |d3
"_F" z//(G//A//B//)| c2"_P"g>f            |e2z"_F"(G//A//B//c//) |d2 f>e|d2z  \
    (c//`d//e//f//)|.g.a``.b.c'           |e2d2                  |c2 c>c|c3 :|
<end>
<start>
